public/images/up-left-fill.svg

<?xml version="1.0" encoding="UTF-8" standalone="no"?>
<svg viewBox="0 0 118 118" version="1.1" xmlns="http://www.w3.org/2000/svg" xmlns:xlink="http://www.w3.org/1999/xlink">
    <g id="Page-1" stroke="none" stroke-width="1" fill="none" fill-rule="evenodd">
        <path d="M45.35,16.05 L72.05,16.05 L72.05,20.2 L72.05,21.65 C71.35,53.8833333 55.75,70.6833333 25.25,72.05 L20.65,72.05 L18.4,72.05 L17.25,72.05 L16.1,72.05 L16.05,45.45 L16.45,45.45 C21.7833333,45.4833333 26.3166667,44.7333333 30.05,43.2 L29.95,43.25 C39.5166667,39.8166667 44.65,32.1833333 45.35,20.35 L45.35,19.9 L45.35,16.05 M53,34.15 C51.9666667,35.2166667 51.45,36.5 51.45,38 L51.45,38.15 C51.4833333,39.5833333 52,40.8 53,41.8 C54.0666667,42.8666667 55.35,43.4 56.85,43.4 C58.35,43.4 59.6166667,42.8666667 60.65,41.8 C61.6833333,40.8 62.2166667,39.5833333 62.25,38.15 L62.25,38 C62.25,36.5 61.7166667,35.2166667 60.65,34.15 C59.6166667,33.1166667 58.35,32.6 56.85,32.6 C55.35,32.6 54.0666667,33.1166667 53,34.15 M25.45,55.15 C25.4833333,56.5833333 26,57.8 27,58.8 C28.0666667,59.8666667 29.35,60.4 30.85,60.4 C32.35,60.4 33.6166667,59.8666667 34.65,58.8 C35.6833333,57.8 36.2166667,56.5833333 36.25,55.15 L36.25,55 C36.25,53.5 35.7166667,52.2166667 34.65,51.15 C33.6166667,50.1166667 32.35,49.6 30.85,49.6 C29.35,49.6 28.0666667,50.1166667 27,51.15 C25.9666667,52.2166667 25.45,53.5 25.45,55 L25.45,55.15 M40.75,55.9 C40.2166667,56.4333333 39.95,57.0833333 39.95,57.85 C39.95,58.6166667 40.2166667,59.2666667 40.75,59.8 C41.2833333,60.3333333 41.9333333,60.6 42.7,60.6 C43.4666667,60.6 44.1166667,60.3333333 44.65,59.8 C45.1833333,59.2666667 45.45,58.6166667 45.45,57.85 C45.45,57.0833333 45.1833333,56.4333333 44.65,55.9 C44.1166667,55.3666667 43.4666667,55.1 42.7,55.1 C41.9333333,55.1 41.2833333,55.3666667 40.75,55.9" id="Shape" fill="#1EA7E1"></path>
        <path d="M40.75,55.9 C41.2833333,55.3666667 41.9333333,55.1 42.7,55.1 C43.4666667,55.1 44.1166667,55.3666667 44.65,55.9 C45.1833333,56.4333333 45.45,57.0833333 45.45,57.85 C45.45,58.6166667 45.1833333,59.2666667 44.65,59.8 C44.1166667,60.3333333 43.4666667,60.6 42.7,60.6 C41.9333333,60.6 41.2833333,60.3333333 40.75,59.8 C40.2166667,59.2666667 39.95,58.6166667 39.95,57.85 C39.95,57.0833333 40.2166667,56.4333333 40.75,55.9 M53,34.15 C54.0666667,33.1166667 55.35,32.6 56.85,32.6 C58.35,32.6 59.6166667,33.1166667 60.65,34.15 C61.7166667,35.2166667 62.25,36.5 62.25,38 L62.25,38.15 C62.2166667,39.5833333 61.6833333,40.8 60.65,41.8 C59.6166667,42.8666667 58.35,43.4 56.85,43.4 C55.35,43.4 54.0666667,42.8666667 53,41.8 C52,40.8 51.4833333,39.5833333 51.45,38.15 L51.45,38 C51.45,36.5 51.9666667,35.2166667 53,34.15 M25.45,55.15 L25.45,55 C25.45,53.5 25.9666667,52.2166667 27,51.15 C28.0666667,50.1166667 29.35,49.6 30.85,49.6 C32.35,49.6 33.6166667,50.1166667 34.65,51.15 C35.7166667,52.2166667 36.25,53.5 36.25,55 L36.25,55.15 C36.2166667,56.5833333 35.6833333,57.8 34.65,58.8 C33.6166667,59.8666667 32.35,60.4 30.85,60.4 C29.35,60.4 28.0666667,59.8666667 27,58.8 C26,57.8 25.4833333,56.5833333 25.45,55.15" id="Shape" fill="#2CB8F3"></path>
    </g>
</svg>

<svg viewBox="0 0 118 118" xmlns="http://www.w3.org/2000/svg"><g fill="none" fill-rule="evenodd"><path d="M45.35 16.05h26.7V21.65c-.7 32.233-16.3 49.033-46.8 50.4H16.1l-.05-26.6h.4c5.333.033 9.867-.717 13.6-2.25l-.1.05c9.567-3.433 14.7-11.067 15.4-22.9v-4.3M53 34.15c-1.033 1.067-1.55 2.35-1.55 3.85v.15c.033 1.433.55 2.65 1.55 3.65 1.067 1.067 2.35 1.6 3.85 1.6s2.767-.533 3.8-1.6c1.033-1 1.567-2.217 1.6-3.65V38c0-1.5-.533-2.783-1.6-3.85-1.033-1.033-2.3-1.55-3.8-1.55s-2.783.517-3.85 1.55m-27.55 21c.033 1.433.55 2.65 1.55 3.65 1.067 1.067 2.35 1.6 3.85 1.6s2.767-.533 3.8-1.6c1.033-1 1.567-2.217 1.6-3.65V55c0-1.5-.533-2.783-1.6-3.85-1.033-1.033-2.3-1.55-3.8-1.55s-2.783.517-3.85 1.55c-1.033 1.067-1.55 2.35-1.55 3.85v.15m15.3.75c-.533.533-.8 1.183-.8 1.95 0 .767.267 1.417.8 1.95.533.533 1.183.8 1.95.8.767 0 1.417-.267 1.95-.8.533-.533.8-1.183.8-1.95 0-.767-.267-1.417-.8-1.95-.533-.533-1.183-.8-1.95-.8-.767 0-1.417.267-1.95.8" fill="#1EA7E1"/><path d="M40.75 55.9c.533-.533 1.183-.8 1.95-.8.767 0 1.417.267 1.95.8.533.533.8 1.183.8 1.95 0 .767-.267 1.417-.8 1.95-.533.533-1.183.8-1.95.8-.767 0-1.417-.267-1.95-.8-.533-.533-.8-1.183-.8-1.95 0-.767.267-1.417.8-1.95M53 34.15c1.067-1.033 2.35-1.55 3.85-1.55s2.767.517 3.8 1.55c1.067 1.067 1.6 2.35 1.6 3.85v.15c-.033 1.433-.567 2.65-1.6 3.65-1.033 1.067-2.3 1.6-3.8 1.6s-2.783-.533-3.85-1.6c-1-1-1.517-2.217-1.55-3.65V38c0-1.5.517-2.783 1.55-3.85m-27.55 21V55c0-1.5.517-2.783 1.55-3.85 1.067-1.033 2.35-1.55 3.85-1.55s2.767.517 3.8 1.55c1.067 1.067 1.6 2.35 1.6 3.85v.15c-.033 1.433-.567 2.65-1.6 3.65-1.033 1.067-2.3 1.6-3.8 1.6s-2.783-.533-3.85-1.6c-1-1-1.517-2.217-1.55-3.65" fill="#2CB8F3"/></g></svg>
